images/icons/trello.svg

<svg fill="none" height="24" viewBox="0 0 24 24" width="24" xmlns="http://www.w3.org/2000/svg" xmlns:xlink="http://www.w3.org/1999/xlink"><linearGradient id="a" gradientUnits="userSpaceOnUse" x1="11.998" x2="11.998" y1="24" y2="0"><stop offset="0" stop-color="#fff" stop-opacity=".4"/><stop offset=".11" stop-color="#fff" stop-opacity=".54"/><stop offset=".25" stop-color="#fff" stop-opacity=".71"/><stop offset=".39" stop-color="#fff" stop-opacity=".83"/><stop offset=".52" stop-color="#fff" stop-opacity=".93"/><stop offset=".64" stop-color="#fff" stop-opacity=".98"/><stop offset=".75" stop-color="#fff"/></linearGradient><clipPath id="b"><path d="m0 0h24v24h-24z"/></clipPath><g clip-path="url(#b)"><path clip-rule="evenodd" d="m21.1443 0h-18.2925c-.75671.00104373-1.48206.302376-2.016767.837817-.534703.535443-.83503372 1.261213-.835033 2.017923v18.29246c0 .7563.300456 1.4817.835272 2.0165.534818.5348 1.260178.8353 2.016528.8353h18.2925c.7567 0 1.4824-.3003 2.0179-.835.5354-.5347.8368-1.2601.8378-2.0168v-18.29246c-.001-.75707-.3022-1.48283-.8376-2.018164-.5353-.535328-1.2611-.83653392-2.0181-.837576zm-10.8085 17.288c.0005.1245-.0236.2479-.0708.363-.0473.1152-.1169.2198-.2047.308-.08783.0882-.19222.1582-.30717.206-.11495.0477-.2382.0723-.36268.0723h-4.01379c-.12448 0-.24773-.0246-.36268-.0723-.11495-.0478-.21934-.1178-.30718-.206-.08783-.0882-.15738-.1928-.20466-.308-.04727-.1151-.07134-.2385-.07083-.363v-11.9074c-.00051-.12448.02356-.24783.07083-.36298.04728-.11515.11683-.21983.20466-.30803.08784-.0882.19223-.15819.30718-.20594s.2382-.07234.36268-.07234h4.01379c.12448 0 .24773.02459.36268.07234s.21934.11774.30717.20594c.0878.0882.1574.19288.2047.30803.0472.11515.0713.2385.0708.36298zm9.2329-5.4672c0 .2517-.1.4932-.2781.6712-.178.178-.4194.2781-.6712.2781h-4.0098c-.2518 0-.4933-.1001-.6713-.2781s-.278-.4195-.278-.6712v-6.4402c0-.25177.1-.49322.278-.67125.178-.17802.4195-.27804.6713-.27804h4.0098c.2518 0 .4932.10002.6712.27804.1781.17803.2781.41948.2781.67125z" fill="url(#a)" fill-rule="evenodd"/></g></svg>

<svg width="24" height="24" viewBox="0 0 24 24" fill="none" xmlns="http://www.w3.org/2000/svg">
<g clip-path="url(#clip0_1432_8784)">
<path fill-rule="evenodd" clip-rule="evenodd" d="M21.1443 0H2.8518C2.09509 0.00104373 1.36974 0.302376 0.835033 0.837817C0.30033 1.37326 -7.19815e-07 2.09903 0 2.85574V21.1482C0 21.9045 0.300456 22.6299 0.835272 23.1647C1.37009 23.6995 2.09545 24 2.8518 24H21.1443C21.901 24 22.6267 23.6997 23.1622 23.165C23.6976 22.6303 23.999 21.9049 24 21.1482V2.85574C23.999 2.09867 23.6978 1.37291 23.1624 0.837576C22.6271 0.302248 21.9013 0.00104208 21.1443 0ZM10.3358 17.288C10.3363 17.4125 10.3122 17.5359 10.265 17.651C10.2177 17.7662 10.1481 17.8708 10.0603 17.959C9.97247 18.0472 9.86808 18.1172 9.75313 18.165C9.63818 18.2127 9.51493 18.2373 9.39045 18.2373H5.37666C5.25218 18.2373 5.12893 18.2127 5.01398 18.165C4.89903 18.1172 4.79464 18.0472 4.7068 17.959C4.61897 17.8708 4.54942 17.7662 4.50214 17.651C4.45487 17.5359 4.4308 17.4125 4.43131 17.288V5.3806C4.4308 5.25612 4.45487 5.13277 4.50214 5.01762C4.54942 4.90247 4.61897 4.79779 4.7068 4.70959C4.79464 4.62139 4.89903 4.5514 5.01398 4.50365C5.12893 4.4559 5.25218 4.43131 5.37666 4.43131H9.39045C9.51493 4.43131 9.63818 4.4559 9.75313 4.50365C9.86808 4.5514 9.97247 4.62139 10.0603 4.70959C10.1481 4.79779 10.2177 4.90247 10.265 5.01762C10.3122 5.13277 10.3363 5.25612 10.3358 5.3806V17.288ZM19.5687 11.8208C19.5687 12.0725 19.4687 12.314 19.2906 12.492C19.1126 12.67 18.8712 12.7701 18.6194 12.7701H14.6096C14.3578 12.7701 14.1163 12.67 13.9383 12.492C13.7603 12.314 13.6603 12.0725 13.6603 11.8208V5.3806C13.6603 5.12883 13.7603 4.88738 13.9383 4.70935C14.1163 4.53133 14.3578 4.43131 14.6096 4.43131H18.6194C18.8712 4.43131 19.1126 4.53133 19.2906 4.70935C19.4687 4.88738 19.5687 5.12883 19.5687 5.3806V11.8208Z" fill="url(#paint0_linear_1432_8784)"/>
</g>
<defs>
<linearGradient id="paint0_linear_1432_8784" x1="11.998" y1="24" x2="11.998" y2="0" gradientUnits="userSpaceOnUse">
<stop stop-color="white" stop-opacity="0.4"/>
<stop offset="0.11" stop-color="white" stop-opacity="0.54"/>
<stop offset="0.25" stop-color="white" stop-opacity="0.71"/>
<stop offset="0.39" stop-color="white" stop-opacity="0.83"/>
<stop offset="0.52" stop-color="white" stop-opacity="0.93"/>
<stop offset="0.64" stop-color="white" stop-opacity="0.98"/>
<stop offset="0.75" stop-color="white"/>
</linearGradient>
<clipPath id="clip0_1432_8784">
<rect width="24" height="24" fill="white"/>
</clipPath>
</defs>
</svg>
